assets/img/braze_icons/clock.svg

<svg fill="none" height="24" viewBox="0 0 24 24" width="24" xmlns="http://www.w3.org/2000/svg"><path clip-rule="evenodd" d="m1 12c0-6.07513 4.92487-11 11-11 6.0751 0 11 4.92487 11 11 0 6.0751-4.9249 11-11 11-6.07513 0-11-4.9249-11-11zm12-6c0-.55228-.4477-1-1-1s-1 .44772-1 1v6c0 .3788.214.725.5528.8944l4 2c.494.247 1.0946.0468 1.3416-.4472s.0468-1.0946-.4472-1.3416l-3.4472-1.7236z" fill="#801ed7" fill-rule="evenodd"/></svg>

<svg width="24" height="24" viewBox="0 0 24 24" fill="none" xmlns="http://www.w3.org/2000/svg">
<path fill-rule="evenodd" clip-rule="evenodd" d="M1 12C1 5.92487 5.92487 1 12 1C18.0751 1 23 5.92487 23 12C23 18.0751 18.0751 23 12 23C5.92487 23 1 18.0751 1 12ZM13 6C13 5.44772 12.5523 5 12 5C11.4477 5 11 5.44772 11 6V12C11 12.3788 11.214 12.725 11.5528 12.8944L15.5528 14.8944C16.0468 15.1414 16.6474 14.9412 16.8944 14.4472C17.1414 13.9532 16.9412 13.3526 16.4472 13.1056L13 11.382V6Z" fill="#801ED7"/>
</svg>
